X: 36
T: No_137_I_Do_Not_Care_For_You_Any_More.krn
N: Derived from No_137_I_Do_Not_Care_For_You_Any_More.krn
%%abc-version 2.0
%%abcx-abcm2ps-target-version 5.9.1 (29 Sep 2008)
%%abc-creator hum2abc beta
%%abcx-conversion-date 2019/03/15 08:29:13
%%humdrum-veritas 3503005695
%%humdrum-veritas-data 1214557956
%%linebreak <none>
%%barnumbers 0
L: 1/8
M: 3/4
K: Eb clef=bass
C3/C/ [I:setbarnb 1]| 
C2G,G,C2 | 
G,3C G,G, | 
F,4z C ||  
[M:2/4]C3/G,/G,2 | 
E,E,F,2 | 
E,3/F,/ E,E, ||  
[M:3/4]C,3C, C,G, | 
F,3C,G,2 | 
F,3F, E,C,- ||  
[M:2/4]C,4 |]  



